X: 2022
T: La Princess Orleance.
%R: march
B: Henry Playford "Apollo's Banquet", London 1687 (5th Edition)
F: https://archive.org/details/apollosbanquetco01rugg
Z: 2017 John Chambers <jc:trillian.mit.edu>
M: C|
L: 1/8
K: C
% - - - - - - - - - -
c2 |\
G2G2 cde2 | d2 c4 e2 |\
fga2 g3f | e2 d4 g2 |\
e2a2 ^f3g | g6 :: g2 |\
e2dc f3g |
e4 d3e |\
c2B2 A3d | B2 G4 c2 |\
d2e2 e3d | d6 g2 |\
d2e2 d3c | Hc6 |]
% - - - - - - - - - -

%%sep 1 1 500
%%sep 1 1 500

